X: 666
T: Laicheng bainian
%%abc-version 2.0
%%abcx-abcm2ps-target-version 5.9.1 (29 Sep 2008)
%%abc-creator hum2abc beta
%%abcx-conversion-date 2013/10/02 07:52:30
%%abc-edited-by Helmut Schaffrath
%%humdrum-veritas 3100133959
%%humdrum-veritas-data 1902565040
%%continueall 1
%%barnumbers 0
L: 1/8
M: 4/4
K: Bb
d2d f' d' c'b2 [I:setbarnb 1]| 
d'2g fd4 | 
d2d f' d' c'b2 | 
d'2g fd4 | 
b gb2d fd2 | 
b g b b d fd2 | 
b gb2d fd2 | 
b g b b d fd2 | 
b c' f' d'c'4 | 
d' c' d' f' d' c' b b | 
d f g bf4 | 
g bf6 |]  



